icons/discord.svg

<svg width="24" height="24" xmlns="http://www.w3.org/2000/svg" fill-rule="evenodd" clip-rule="evenodd"><path d="M19.54 0c1.356 0 2.46 1.104 2.46 2.472v21.528l-2.58-2.28-1.452-1.344-1.536-1.428.636 2.22h-13.608c-1.356 0-2.46-1.104-2.46-2.472v-16.224c0-1.368 1.104-2.472 2.46-2.472h16.08zm-4.632 15.672c2.652-.084 3.672-1.824 3.672-1.824 0-3.864-1.728-6.996-1.728-6.996-1.728-1.296-3.372-1.26-3.372-1.26l-.168.192c2.04.624 2.988 1.524 2.988 1.524-1.248-.684-2.472-1.02-3.612-1.152-.864-.096-1.692-.072-2.424.024l-.204.024c-.42.036-1.44.192-2.724.756-.444.204-.708.348-.708.348s.996-.948 3.156-1.572l-.12-.144s-1.644-.036-3.372 1.26c0 0-1.728 3.132-1.728 6.996 0 0 1.008 1.74 3.66 1.824 0 0 .444-.54.804-.996-1.524-.456-2.1-1.416-2.1-1.416l.336.204.048.036.047.027.014.006.047.027c.3.168.6.3.876.408.492.192 1.08.384 1.764.516.9.168 1.956.228 3.108.012.564-.096 1.14-.264 1.74-.516.42-.156.888-.384 1.38-.708 0 0-.6.984-2.172 1.428.36.456.792.972.792.972zm-5.58-5.604c-.684 0-1.224.6-1.224 1.332 0 .732.552 1.332 1.224 1.332.684 0 1.224-.6 1.224-1.332.012-.732-.54-1.332-1.224-1.332zm4.38 0c-.684 0-1.224.6-1.224 1.332 0 .732.552 1.332 1.224 1.332.684 0 1.224-.6 1.224-1.332 0-.732-.54-1.332-1.224-1.332z"/></svg>

<?xml version="1.0" encoding="utf-8"?>
<!-- Generator: Adobe Illustrator 22.0.1, SVG Export Plug-In . SVG Version: 6.00 Build 0)  -->
<svg version="1.1" id="Layer_1" xmlns="http://www.w3.org/2000/svg" xmlns:xlink="http://www.w3.org/1999/xlink" x="0px" y="0px"
	 viewBox="0 0 24 24" style="enable-background:new 0 0 24 24;" xml:space="preserve">
<style type="text/css">
	.st0{fill:#FCFAFF;}
</style>
<path class="st0" d="M19.5,0C20.9,0,22,1.1,22,2.5V24l-2.6-2.3L18,20.4l-1.5-1.4l0.6,2.2H3.5c-1.4,0-2.5-1.1-2.5-2.5V2.5
	C1,1.1,2.1,0,3.5,0C3.5,0,19.5,0,19.5,0z M14.9,15.7c2.7-0.1,3.7-1.8,3.7-1.8c0-3.9-1.7-7-1.7-7c-1.7-1.3-3.4-1.3-3.4-1.3l-0.2,0.2
	c2,0.6,3,1.5,3,1.5c-1.2-0.7-2.5-1-3.6-1.2c-0.9-0.1-1.7-0.1-2.4,0l-0.2,0C9.6,6.2,8.6,6.4,7.3,7C6.9,7.2,6.6,7.3,6.6,7.3
	s1-0.9,3.2-1.6L9.7,5.6c0,0-1.6,0-3.4,1.3c0,0-1.7,3.1-1.7,7c0,0,1,1.7,3.7,1.8c0,0,0.4-0.5,0.8-1c-1.5-0.5-2.1-1.4-2.1-1.4l0.3,0.2
	l0,0l0,0l0,0l0,0C7.7,13.7,8,13.9,8.3,14c0.5,0.2,1.1,0.4,1.8,0.5c0.9,0.2,2,0.2,3.1,0c0.6-0.1,1.1-0.3,1.7-0.5
	c0.4-0.2,0.9-0.4,1.4-0.7c0,0-0.6,1-2.2,1.4C14.5,15.2,14.9,15.7,14.9,15.7z M9.3,10.1c-0.7,0-1.2,0.6-1.2,1.3
	c0,0.7,0.6,1.3,1.2,1.3c0.7,0,1.2-0.6,1.2-1.3C10.6,10.7,10,10.1,9.3,10.1z M13.7,10.1c-0.7,0-1.2,0.6-1.2,1.3
	c0,0.7,0.6,1.3,1.2,1.3c0.7,0,1.2-0.6,1.2-1.3C14.9,10.7,14.4,10.1,13.7,10.1z"/>
</svg>
